X: 32060
T: Pembroke Reel
R: reel
M: 4/4
K: Dmajor
fg|:"D"agfe dAde|fdfg a2gf|"A"eAcd eAcd|egfe "D"f2fg|
"D"agfe dAde|fdfg a2gf|"A"eAcd egfe|1 "D"dcde d2fg:|2 "D"dcde d2AG||
|:"D"FDFA dfed|"A"cAce g2fe|"D"dAdf a2gf|"A"feed e2AG|
"D"FDFA dfed|"A"cAce g2fe|"D"fagf "A"egfe|1 "D"dcde d2AG:|2 "D"dcde d2||

